
; generated by Slic3r 1.2.9 on 2016-10-18 at 15:09:32

; external perimeters extrusion width = 0.50mm
; perimeters extrusion width = 0.72mm
; infill extrusion width = 0.72mm
; solid infill extrusion width = 0.72mm
; top infill extrusion width = 0.72mm
; support material extrusion width = 0.50mm

M107
M104 S230 ; set temperature
G28 ; home all axes
G1 Z5 F5000 ; lift nozzle

M109 S230 ; wait for temperature to be reached
G21 ; set units to millimeters
G90 ; use absolute coordinates
M82 ; use absolute distances for extrusion
G92 E0
G1 Z0.350 F7800.000
G1 E-2.00000 F2400.00000
G92 E0
G1 X93.005 Y90.656 F7800.000
G1 E2.00000 F2400.00000
G1 X94.694 Y89.105 E2.20854 F610.677
G1 X96.812 Y88.223 E2.41708
G1 X98.206 Y88.063 E2.54476
G1 X101.775 Y88.063 E2.86922
G1 X104.031 Y88.472 E3.07776 F610.677
G1 X106.013 Y89.627 E3.28630
G1 X107.482 Y91.388 E3.49484
G1 X108.263 Y93.544 E3.70338
G1 X108.363 Y94.736 E3.81211
G1 X107.949 Y97.004 E4.02174
G1 X106.791 Y98.983 E4.23028
G1 X104.460 Y100.739 E4.49567
G1 X102.715 Y101.524 E4.66964
G1 X100.492 Y102.088 E4.87818
G1 X97.285 Y101.524 E5.17429
G1 X95.540 Y100.739 E5.34826
G1 X93.644 Y99.449 E5.55680
G1 X92.301 Y97.590 E5.76534
G1 X91.643 Y94.976 E6.01048
G1 X91.945 Y92.690 E6.22011
G1 X92.970 Y90.723 E6.42183
G1 E4.42183 F2400.00000
G92 E0
G1 X101.104 Y94.825 F7800.000
G1 E2.00000 F2400.00000
G1 X100.000 Y95.066 E2.10277 F610.677
G1 X98.895 Y94.825 E2.20555
G1 Z0.350 F7800.000
G1 Z0.650 F7800.000
G1 X100.648 Y95.431 F7800.000
G1 X100.655 Y95.461 E2.20803 F600.000
G1 X100.715 Y95.741 E2.23145 F900.000
G1 X100.000 Y96.062 E2.29542
G1 X99.284 Y95.741 E2.35948
G1 X99.344 Y95.460 E2.38290
G1 X99.351 Y95.430 E2.38540 F600.000
G1 X100.573 Y95.431 E2.48517
G1 X103.383 Y94.900 F7800.000
G1 X103.120 Y95.257 E2.52141 F900.000
G1 X100.000 Y96.660 E2.80066
G1 X96.880 Y95.257 E3.07990
G1 X96.605 Y94.884 E3.11775
G1 X98.063 Y94.885 E3.23676
G1 X101.933 Y94.886 E3.44700 F600.000
G1 X103.308 Y94.898 E3.55928 F900.000
G1 X102.594 Y95.176 F7800.000
G1 X100.948 Y95.529 E3.69668 F600.000
G1 X99.051 Y95.528 F7800.000
G1 X97.401 Y95.174 E3.83447 F600.000
G1 Z0.950 F7800.000
G1 X100.658 Y96.048 F7800.000
G1 X100.725 Y96.359 E3.86040 F600.000
G1 X100.360 Y96.522 E3.89300
G1 X100.000 Y96.606 E3.92320
G1 X99.640 Y96.522 E3.95340
G1 X99.276 Y96.359 E3.98589
G1 X99.343 Y96.049 E4.01181
G1 X100.583 Y96.048 E4.11306
G1 X103.313 Y95.392 F7800.000
G1 X102.954 Y95.880 E4.16246 F600.000
G1 X102.740 Y96.172 E4.19207 F900.000
G1 X100.570 Y97.145 E4.38615
G1 X100.000 Y97.278 E4.43395
G1 X99.430 Y97.145 E4.48175
G1 X97.260 Y96.172 E4.67583
G1 X97.046 Y95.880 E4.70544
G1 X96.690 Y95.396 E4.75451 F600.000
G1 X103.238 Y95.392 E5.28905
G1 X104.388 Y94.850 F7800.000
G1 X103.094 Y96.611 E5.46749 F900.000
G1 X100.745 Y97.664 E5.67760
G1 X100.000 Y97.838 E5.74007
G1 X99.255 Y97.664 E5.80253
G1 X96.906 Y96.611 E6.01264
G1 X95.613 Y94.851 E6.19091
G1 X95.961 Y94.851 E6.21928
G1 X104.042 Y94.848 E6.65835 F600.000
G1 X104.313 Y94.849 E6.68051 F900.000
G1 X102.613 Y95.792 F7800.000
G1 X101.011 Y96.135 E6.81423 F640.375
G1 X98.990 Y96.136 F7800.000
G1 X97.388 Y95.793 E6.94793 F640.375
M106 S255
G1 Z1.250 F7800.000
G1 X103.016 Y96.010 F7800.000
G1 X102.507 Y96.700 E7.01794 F722.579
G1 X100.000 Y97.283 E7.22802
G1 X97.493 Y96.700 E7.43810
G1 X96.984 Y96.010 E7.50812
G1 X102.941 Y96.010 E7.99434
G1 X104.307 Y95.362 F7800.000
G1 X102.925 Y97.235 E8.18433 F722.579
M106 S255
G1 X102.890 Y97.283 E8.18920 F900.000
G1 X102.745 Y97.317 E8.20135
M106 S255
G1 X100.000 Y97.955 E8.43142 F722.579
G1 X97.255 Y97.317 E8.66148
M106 S255
G1 X97.110 Y97.283 E8.67363 F900.000
G1 X97.075 Y97.235 E8.67850
M106 S255
G1 X95.689 Y95.355 E8.86913 F722.579
G1 X104.232 Y95.361 E9.56652
G1 X105.381 Y94.823 F7800.000
M106 S255
G1 X103.270 Y97.686 E9.85691 F900.000
G1 X103.123 Y97.788 E9.87154
G1 X100.000 Y98.514 E10.13329
G1 X96.877 Y97.788 E10.39505
G1 X96.730 Y97.686 E10.40968
G1 X94.610 Y94.810 E10.70132
G1 X94.959 Y94.810 E10.72988
M106 S255
G1 X105.033 Y94.821 E11.27719 F722.579
M106 S255
G1 X105.306 Y94.822 E11.29951 F900.000
M106 S255
G1 E9.29951 F2400.00000
G92 E0
G1 X102.344 Y96.369 F7800.000
G1 E2.00000 F2400.00000
G1 X100.957 Y96.528 E2.11395 F963.439
G1 X100.957 Y96.528 F7800.000
G1 X100.000 Y96.638 E2.27902 F963.439
G1 X99.043 Y96.528 E2.44408
G1 X97.656 Y96.369 E2.55803 F963.439
M106 S252.45
G1 Z1.550 F7800.000
G1 X104.010 Y95.978 F7800.000
G1 X103.423 Y96.775 E2.63878 F900.000
G1 X102.584 Y97.359 E2.72227
G1 X100.000 Y97.960 E2.93882
G1 X97.416 Y97.359 E3.15538
G1 X96.577 Y96.775 E3.23887
G1 X95.993 Y95.983 E3.31919
G1 X103.935 Y95.978 E3.96744
G1 X105.302 Y95.328 F7800.000
G1 X103.886 Y97.250 E4.16233 F900.000
G1 X102.855 Y97.968 E4.26492
G1 X100.000 Y98.632 E4.50418
G1 X97.145 Y97.968 E4.74344
G1 X96.114 Y97.250 E4.84603
G1 X94.700 Y95.330 E5.04069
G1 X105.227 Y95.328 E5.90003
G1 X106.378 Y94.786 F7800.000
M106 S255
G1 X104.271 Y97.646 E6.18997 F900.000
G1 X103.080 Y98.476 E6.30847
G1 X100.000 Y99.192 E6.56663
G1 X96.920 Y98.476 E6.82480
G1 X95.729 Y97.646 E6.94330
G1 X93.623 Y94.786 E7.23318
G1 X93.971 Y94.786 E7.26161
M106 S252.45
G1 X106.030 Y94.785 E7.91681 F900.000
M106 S255
G1 X106.303 Y94.786 E7.93909 F900.000
M106 S252.45
G1 E5.93909 F2400.00000
G92 E0
G1 X103.048 Y96.453 F7800.000
G1 E2.00000 F2400.00000
G1 X102.287 Y96.691 E2.13665 F1200.000
G1 X101.642 Y96.766 E2.24779
G1 X101.217 Y96.693 F7800.000
G1 X100.896 Y96.373 E2.30302 F1200.000
G1 X100.586 Y97.444 E2.43904
G1 X99.516 Y96.375 E2.62346
G1 X98.734 Y96.974 E2.74362
G1 X99.056 Y97.297 E2.79921
G1 X98.372 Y96.770 F7800.000
G1 X97.712 Y96.695 E2.91302 F1200.000
G1 X96.961 Y96.459 E3.04787
M106 S249.9
G1 Z1.850 F7800.000
G1 X105.009 Y95.936 F7800.000
G1 X104.419 Y96.738 E3.12908 F900.000
G1 X102.541 Y98.047 E3.31598
G1 X100.000 Y98.637 E3.52893
G1 X97.459 Y98.047 E3.74189
G1 X95.581 Y96.738 E3.92878
G1 X94.991 Y95.937 E4.00997
G1 X104.934 Y95.936 E4.82163
G1 X106.044 Y95.298 F7800.000
G1 X105.698 Y96.105 E4.89328 F900.000
G1 X104.882 Y97.213 E5.00561
G1 X102.812 Y98.656 E5.21163
G1 X100.000 Y99.309 E5.44728
G1 X97.188 Y98.656 E5.68294
G1 X95.118 Y97.213 E5.88895
G1 X94.302 Y96.105 E6.00128
G1 X93.950 Y95.282 E6.07430
G1 X104.643 Y95.282 E6.94719
G1 X105.969 Y95.297 E7.05543
G1 X106.866 Y94.762 F7800.000
G1 X106.656 Y95.251 E7.08436 F900.000
M106 S255
G1 X106.174 Y96.377 E7.18431 F900.000
G1 X105.268 Y97.608 E7.30914
G1 X103.037 Y99.163 E7.53107
G1 X100.000 Y99.869 E7.78563
G1 X96.963 Y99.163 E8.04019
G1 X94.732 Y97.608 E8.26212
G1 X93.826 Y96.377 E8.38694
G1 X93.344 Y95.251 E8.48694
M106 S249.9
G1 X93.124 Y94.737 E8.51730 F900.000
G1 X104.646 Y94.737 E9.14335
G1 X106.791 Y94.761 E9.25990
G1 X106.508 Y95.111 F7800.000
G1 E7.25990 F2400.00000
G92 E0
G1 X103.578 Y96.712 F7800.000
G1 E2.00000 F2400.00000
G1 X103.936 Y96.354 E2.04241 F1200.000
G1 X103.007 Y96.334 E2.12023
G1 X101.495 Y97.846 E2.29924
G1 X100.258 Y98.133 E2.40554
G1 X102.058 Y96.334 E2.61856
G1 X101.108 Y96.334 E2.69804
G1 X99.338 Y98.104 E2.90761
G1 X98.568 Y97.925 E2.97382
G1 X100.159 Y96.334 E3.16220
G1 X99.210 Y96.334 E3.24168
G1 X97.798 Y97.746 E3.40886
G1 X97.168 Y97.426 E3.46797
G1 X98.260 Y96.334 E3.59726
G1 X97.311 Y96.334 E3.67675
G1 X96.609 Y97.036 E3.75986
G1 X96.064 Y96.632 E3.81668
G1 X96.362 Y96.334 E3.85193
M106 S244.8
G1 Z2.150 F7800.000
G1 X105.619 Y95.909 F7800.000
G1 X105.215 Y96.840 E3.93483 F900.000
G1 X102.498 Y98.734 E4.20519
G1 X100.000 Y99.314 E4.41454
G1 X97.502 Y98.734 E4.62389
G1 X94.786 Y96.841 E4.89415
G1 X94.380 Y95.900 E4.97784
G1 X105.544 Y95.908 E5.88925
G1 X106.616 Y95.258 F7800.000
G1 X105.741 Y97.271 E6.06842 F900.000
G1 X102.769 Y99.343 E6.36421
G1 X100.000 Y99.986 E6.59626
G1 X97.231 Y99.343 E6.82831
G1 X94.259 Y97.271 E7.12406
G1 X93.384 Y95.245 E7.30423
G1 X106.541 Y95.258 E8.37825
G1 E6.37825 F2400.00000
G92 E0
G1 X92.555 Y94.700 F7800.000
G1 E2.00000 F2400.00000
G1 X107.441 Y94.716 E2.80882 F900.000
M106 S255
G1 X106.203 Y97.577 E3.06329 F900.000
G1 X106.156 Y97.646 E3.07015
G1 X102.995 Y99.851 E3.38475
G1 X100.000 Y100.546 E3.63571
G1 X97.005 Y99.851 E3.88666
G1 X93.844 Y97.646 E4.20126
G1 X93.798 Y97.577 E4.20810
G1 X93.126 Y96.021 E4.34641
M106 S244.8
G1 X92.584 Y94.769 E4.42054 F900.000
G1 X93.017 Y94.889 F7800.000
G1 E2.42054 F2400.00000
G92 E0
G1 X95.082 Y96.323 F7800.000
G1 E2.00000 F2400.00000
G1 X95.454 Y96.694 E2.04422 F1200.000
G1 X96.013 Y96.298 E2.10190
G1 X98.156 Y98.442 E2.35722
G1 X99.400 Y98.731 E2.46472
G1 X96.968 Y96.299 E2.75433
G1 X97.924 Y96.300 E2.83480
G1 X100.453 Y98.830 E3.13605
G1 X101.228 Y98.650 E3.20304
G1 X98.879 Y96.301 E3.48278
G1 X99.835 Y96.302 E3.56324
G1 X102.003 Y98.470 E3.82146
G1 X102.678 Y98.190 E3.88301
G1 X100.790 Y96.302 E4.10786
G1 X101.746 Y96.303 E4.18832
G1 X103.241 Y97.798 E4.36637
G1 X103.804 Y97.406 E4.42412
G1 X102.701 Y96.304 E4.55537
G1 X103.657 Y96.305 E4.63583
G1 X104.366 Y97.014 E4.72027
G1 X104.613 Y96.305 E4.78342
G1 X104.913 Y96.606 E4.81920
M106 S242.25
G1 Z2.450 F7800.000
G1 X93.812 Y95.863 F7800.000
G1 X106.187 Y95.864 E5.82939 F900.000
G1 X105.720 Y96.939 E5.92509
G1 X105.272 Y97.458 E5.98107
G1 X102.456 Y99.422 E6.26131
G1 X102.263 Y99.466 E6.27747
G1 X100.000 Y99.807 E6.46429
G1 X97.737 Y99.466 E6.65111
G1 X97.544 Y99.422 E6.66727
G1 X94.728 Y97.458 E6.94752
G1 X94.280 Y96.939 E7.00350
G1 X93.842 Y95.932 E7.09315
G1 X92.814 Y95.208 F7800.000
G1 X107.185 Y95.209 E8.26626 F900.000
G1 X106.281 Y97.291 E8.45155
G1 X105.714 Y97.948 E8.52238
G1 X102.726 Y100.031 E8.81965
G1 X102.386 Y100.109 E8.84821
G1 X100.000 Y100.469 E9.04515
G1 X97.614 Y100.109 E9.24209
G1 X97.274 Y100.031 E9.27065
G1 X94.286 Y97.948 E9.56793
G1 X93.719 Y97.291 E9.63876
G1 X92.844 Y95.277 E9.81802
G1 X91.984 Y94.664 F7800.000
M106 S255
G1 X91.987 Y94.664 E9.81832 F900.000
M106 S242.25
G1 X108.013 Y94.664 E10.68902 F900.000
M106 S255
G1 X106.741 Y97.592 E10.94957 F900.000
M106 S242.25
G1 X106.186 Y98.235 E10.99575 F900.000
M106 S255
G1 X106.082 Y98.356 E11.00877 F900.000
G1 X102.952 Y100.538 E11.32022
G1 X102.488 Y100.645 E11.35911
G1 X100.480 Y100.948 E11.52487
M106 S242.25
G1 X100.000 Y101.020 E11.55123 F900.000
G1 X99.520 Y100.948 E11.57759
M106 S255
G1 X97.512 Y100.645 E11.74336 F900.000
G1 X97.048 Y100.538 E11.78224
G1 X93.918 Y98.356 E12.09371
G1 X93.814 Y98.235 E12.10673
M106 S242.25
G1 X93.259 Y97.593 E12.15286 F900.000
M106 S255
G1 X92.014 Y94.733 E12.40747 F900.000
M106 S242.25
G1 E10.40747 F2400.00000
G92 E0
G1 X94.507 Y96.573 F7800.000
G1 E2.00000 F2400.00000
G1 X94.819 Y96.261 E2.03852 F1200.000
G1 X95.806 Y96.261 E2.12445
G1 X94.925 Y97.142 E2.23292
G1 X95.486 Y97.568 E2.29424
G1 X96.794 Y96.261 E2.45526
G1 X97.781 Y96.261 E2.54119
G1 X96.067 Y97.974 E2.75212
G1 X96.649 Y98.379 E2.81385
G1 X98.768 Y96.261 E3.07469
G1 X99.755 Y96.261 E3.16062
G1 X97.231 Y98.785 E3.47138
G1 X97.895 Y99.107 E3.53570
G1 X100.742 Y96.261 E3.88615
G1 X101.729 Y96.261 E3.97209
G1 X98.753 Y99.236 E4.33843
G1 X99.611 Y99.366 E4.41397
G1 X102.716 Y96.261 E4.79621
G1 X103.703 Y96.261 E4.88214
G1 X100.685 Y99.279 E5.25374
G1 X101.847 Y99.104 E5.35605
G1 X104.690 Y96.261 E5.70610
G1 X105.229 Y96.710 E5.76712
G1 X104.677 Y97.261 E5.83500
M106 S239.7
G1 Z2.750 F7800.000
G1 X93.247 Y95.827 F7800.000
G1 X106.750 Y95.834 E6.93729 F900.000
G1 X106.287 Y96.900 E7.03218
G1 X105.185 Y98.176 E7.16981
G1 X103.157 Y99.590 E7.37164
G1 X102.595 Y99.842 E7.42192
G1 X100.000 Y100.233 E7.63615
G1 X97.405 Y99.842 E7.85037
G1 X96.843 Y99.590 E7.90065
G1 X94.815 Y98.176 E8.10249
G1 X93.713 Y96.900 E8.24011
G1 X93.277 Y95.895 E8.32953
G1 X92.249 Y95.172 F7800.000
G1 X107.747 Y95.180 E9.59471 F900.000
G1 X106.848 Y97.252 E9.77914
G1 X105.627 Y98.666 E9.93163
G1 X103.481 Y100.162 E10.14516
G1 X102.781 Y100.476 E10.20776
G1 X100.000 Y100.895 E10.43738
G1 X97.219 Y100.476 E10.66700
G1 X96.519 Y100.162 E10.72959
G1 X94.373 Y98.666 E10.94313
G1 X93.152 Y97.252 E11.09561
G1 X92.279 Y95.240 E11.27467
G1 X91.420 Y94.631 F7800.000
M106 S255
G1 X91.424 Y94.631 E11.27499 F900.000
M106 S239.7
G1 X108.574 Y94.635 E12.20679 F900.000
M106 S255
G1 X107.307 Y97.554 E12.46656 F900.000
M106 S239.7
G1 X106.099 Y98.953 E12.56697 F900.000
M106 S255
G1 X105.995 Y99.074 E12.58003 F900.000
G1 X103.751 Y100.638 E12.80330
G1 X103.559 Y100.724 E12.82043
M106 S239.7
G1 X102.937 Y101.004 E12.85753 F900.000
G1 X100.000 Y101.447 E13.01889
G1 X97.063 Y101.004 E13.18025
G1 X96.440 Y100.724 E13.21735
M106 S255
G1 X96.249 Y100.638 E13.23446 F900.000
G1 X94.005 Y99.074 E13.45774
G1 X93.901 Y98.953 E13.47080
M106 S239.7
G1 X92.693 Y97.554 E13.57121 F900.000
M106 S255
G1 X91.450 Y94.700 E13.82533 F900.000
M106 S239.7
G1 E11.82533 F2400.00000
G92 E0
G1 X94.858 Y97.428 F7800.000
G1 E2.00000 F2400.00000
G1 X95.409 Y97.979 E2.06388 F1200.000
G1 X97.844 Y99.484 F7800.000
G1 X94.584 Y96.225 E2.44168 F1200.000
G1 X95.514 Y96.225 E2.51790
G1 X98.938 Y99.649 E2.91475
G1 X100.032 Y99.814 E3.00546
G1 X96.444 Y96.226 E3.42137
G1 X97.374 Y96.226 E3.49759
G1 X100.868 Y99.720 E3.90258
G1 X101.675 Y99.598 E3.96953
G1 X98.304 Y96.227 E4.36035
G1 X99.234 Y96.227 E4.43657
G1 X102.483 Y99.477 E4.81323
G1 X103.128 Y99.192 E4.87099
G1 X100.164 Y96.228 E5.21457
G1 X101.094 Y96.228 E5.29080
G1 X103.676 Y98.810 E5.59008
G1 X104.223 Y98.429 E5.64481
G1 X102.024 Y96.229 E5.89980
G1 X102.954 Y96.229 E5.97602
G1 X104.771 Y98.047 E6.18671
G1 X105.243 Y97.589 E6.24059
G1 X103.883 Y96.230 E6.39814
G1 X104.813 Y96.230 E6.47436
G1 X105.673 Y97.090 E6.57403
G1 X105.743 Y96.231 E6.64470
G1 X106.056 Y96.544 E6.68097
G1 Z3.050 F7800.000
G1 X92.686 Y95.800 F7800.000
G1 X107.315 Y95.797 E7.87519 F900.000
G1 X106.852 Y96.863 E7.97005
G1 X105.099 Y98.895 E8.18914
G1 X104.156 Y99.552 E8.28291
G1 X102.546 Y100.276 E8.42702
G1 X100.000 Y100.660 E8.63723
G1 X97.454 Y100.276 E8.84744
G1 X95.844 Y99.552 E8.99155
G1 X94.901 Y98.895 E9.08533
G1 X93.148 Y96.863 E9.30441
G1 X92.716 Y95.869 E9.39292
G1 X91.688 Y95.145 F7800.000
G1 X108.313 Y95.143 E10.75003 F900.000
G1 X107.413 Y97.215 E10.93449
G1 X105.540 Y99.385 E11.16844
G1 X104.480 Y100.124 E11.27391
G1 X102.733 Y100.909 E11.43033
G1 X100.000 Y101.322 E11.65594
G1 X97.267 Y100.909 E11.88155
G1 X95.520 Y100.123 E12.03798
G1 X94.459 Y99.385 E12.14347
G1 X92.587 Y97.215 E12.37740
G1 X91.718 Y95.214 E12.55548
G1 X90.858 Y94.601 F7800.000
M106 S255
G1 X90.862 Y94.601 E12.55582 F3600.000
M106 S239.7
G1 X109.140 Y94.597 E13.54892 F1800.000
M106 S255
G1 X107.872 Y97.518 E13.80881 F3600.000
M106 S239.7
G1 X106.014 Y99.671 E13.96334 F1800.000
M106 S255
G1 X105.908 Y99.793 E13.97650 F3600.000
G1 X104.750 Y100.600 E14.09172
G1 X104.555 Y100.688 E14.10921
M106 S239.7
G1 X102.888 Y101.437 E14.20851 F1800.000
G1 X100.000 Y101.873 E14.36720
G1 X97.112 Y101.437 E14.52590
G1 X95.445 Y100.688 E14.62520
M106 S255
G1 X95.250 Y100.600 E14.64269 F3600.000
G1 X94.092 Y99.793 E14.75792
G1 X93.986 Y99.670 E14.77112
M106 S239.7
G1 X92.128 Y97.518 E14.92562 F1800.000
M106 S255
G1 X90.887 Y94.669 E15.17923 F3600.000
M106 S239.7
G1 E13.17923 F2400.00000
G92 E0
G1 X93.380 Y96.510 F7800.000
G1 E2.00000 F2400.00000
G1 X93.693 Y96.197 E2.03711 F1200.000
G1 X94.644 Y96.197 E2.11685
G1 X93.774 Y97.067 E2.22006
G1 X94.214 Y97.578 E2.27659
G1 X95.595 Y96.197 E2.44033
G1 X96.546 Y96.197 E2.52008
G1 X94.654 Y98.088 E2.74437
G1 X95.107 Y98.586 E2.80081
G1 X97.497 Y96.196 E3.08423
G1 X98.448 Y96.196 E3.16398
G1 X95.647 Y98.997 E3.49608
G1 X96.248 Y99.347 E3.55438
G1 X99.399 Y96.196 E3.92802
G1 X100.350 Y96.196 E4.00777
G1 X96.904 Y99.642 E4.41641
G1 X97.584 Y99.913 E4.47778
G1 X101.301 Y96.196 E4.91858
G1 X102.252 Y96.196 E4.99833
G1 X98.410 Y100.037 E5.45393
G1 X99.236 Y100.162 E5.52400
G1 X103.203 Y96.195 E5.99441
G1 X104.154 Y96.195 E6.07415
G1 X100.134 Y100.215 E6.55089
G1 X101.254 Y100.046 E6.64585
G1 X105.105 Y96.195 E7.10257
G1 X106.056 Y96.195 F7800.000
G1 X102.438 Y99.813 E7.53162 F1200.000
G1 X104.504 Y98.698 F7800.000
G1 X105.055 Y98.146 E7.59701 F1200.000
M106 S242.25
G1 Z3.350 F7800.000
G1 X92.116 Y95.752 F7800.000
G1 X107.881 Y95.760 E8.88392 F900.000
G1 X107.418 Y96.825 E8.97873
G1 X105.061 Y99.556 E9.27319
